X: 223
T: La Promenade
P: Cotillon
R: Cotillon
B: C. & S. Thompson, "The Compleat Tutor for the Fife" c.1760 p.22 #3
S: http://imslp.org/wiki/The_Compleat_Tutor_for_the_Fife_(Anonymous)
Z: 2014 John Chambers <jc:trillian.mit.edu>
M: 6/8
L: 1/8
K: D
% - - - - - - - - - - - - - - - - - - - - - - - - -
|:\
d2a f2e | f2g f2e | d2a f2d | e2A d3 :|\
|:\
e2f e2d | e2f e2d | d2e f2e | f2g a3 |\
d2a f2e | f2g f2e | d2a f2d | e2A d3 :|
|:\
ded d2e | fgf f2e | ded dgf | edc d3 :|\
|: aba a3 | ABA A3 | gag g3 | ABA A3 |\
d2A d2e | fgf f2e | d2A Bgf | edc d3 :|
% - - - - - - - - - - - - - - - - - - - - - - - - -

%%sep 1 1 500
%%sep 1 1 500

